X:21125 
T:MARTIN'S ONEHORNED COW 
B:DMI.0325
Z:Nordberg/Black
R:jig
%Q:1/4=160
M:6/8
L:1/8
K:D
F2A AFA|BGB AFD|F2A AFD|EFE E2D|
F2A AFA|BGB AFD|FAF GEC|DED D3:|
d2B cBA|BdB AFD|d2B cAF|EFE EFA|
d2B cBA|BdB AFD|FAF GEC|DED D3:|

%%%

